!!!XEN: Moccasin game song (b)
!!!AGN: Moccasin game [gambling] song
!!!COM: Anonymous
!!!CNT: Native American -- Ojibway
!!!TXO: Ojibway
!!!MLC: Lac du Flambeau reservation, northern Wisconsin, U.S.A.
!!!MRD: 1909-1912///
!!!MPN: E'niwub'e ("Sits farther along")
**kern
*MM100
*Imale
*k[f#c#g#d#]
*clefF4
*M2/4
=1
4c#
8.G#
16c#
=2
2c#
=3
8c#
8G#
8G#
8F#
=4
2G#
=5
8c#
8F#
8E
8E
=6
2F#
=7
8F#
8E
8C#
8C#
=8
2E
=9
8F#
8E
8C#
8C#
=10
*M3/4
16C#
8.C#
8.C#
16C#
8C#
8C#
=11
*M2/4
8.C#
16C#
4C#
=12
*M3/4
2.C#
=13
*M2/4
4G#
8.F#
16G#
=14
2G#
=15
8c#
8F#
8E
8E
=16
2F#
=17
8F#
8E
8C#
8C#
=18
2E
=19
8F#
8E
8C#
8C#
=20
*M3/4
16C#
8.C#
8.C#
16C#
8C#
8C#
=21
*M2/4
8.C#
16C#
4C#
=22
*M3/4
2.C#
==
*-
!!!OCL: Frances Densmore
!!!YOR: Chippewa [i.e., Ojibway] Music--II, Bulletin 53 of the Bureau of American Ethnology, Smitsonian Institution
!!!ONM: 104
!!!PPG: 210
!!!PUB: published
!!!PPR: Government Printing Office
!!!PPP: Washington, D.C.
!!!PDT: 1912///
!!!EST: missing clef changes, text, drum tempo, and drum part
!!!YEC: Copyright 1998 Paul von Hippel
!!!YEM: Rights to all derivate electronic formats reserved.
!!!EFL: 33/42
